**kern	**kern
*staff1	*staff1
!!*head[head1a]	*head[head1a]
!!*solo1[solo1b]	*solo1[solo1b]
!!*solo1[solo1aa]	*solo1[solo1aa]
!!*solo1[solo1a]	*solo1[solo1a]
!!*solo2[solo2b]	*solo2[solo2b]
!!*solo2[solo2aa]	*solo2[solo2aa]
=1-	=1-
*clefG2	*clefG2
*k[]	*k[]
*F:	*F:
*M4/4	*M4/4
2r	1F:maj
*>head1a	*>head1a
{8a/L	.
8b-/	.
8cc/	.
8a/J	.
=2	=2
12b-\L	1F:maj
12cc\	.
12b-\J	.
8a/L	.
8g/J	.
8f/L	.
8d-/	.
8c/	.
8B-/J	.
=3	=3
8A/L	1F:maj
8c/	.
8d/	.
8e/J	.
4g/}	.
4r	.
=4	=4
2r	2A:min
2r	2D:dom
=5	=5
2r	1G:min
{8ff\	.
24ee\LL	.
24dd\	.
24cc\JJ	.
8b-/L	.
8a/J	.
=6	=6
8g/L	1C:dom
8f/	.
8e/	.
8g/J	.
8b-\L	.
8dd-\	.
8cc\	.
8a\J	.
=7	=7
8b-\L	1F:maj
16cc\L	.
16b-\J	.
8a\	.
8b-\J	.
8cc/L	.
8a/	.
8g/J}	.
8r	.
=8	=8
2r	2A:min
2r	2D:dom
=9	=9
2r	1F:maj
{8f/L	.
8g/	.
8a/	.
8b-/J	.
=10||	=10||
8cc/L	1F:maj
8a/J	.
12b-\L	.
12cc\	.
12b-\J	.
8a/L	.
8f/	.
8d/	.
8c/J	.
=11	=11
8g/L	1F:maj
8c/	.
8e/	.
8g/J	.
4g-/}	.
4r	.
=12	=12
{8f/L	2A:min
8d/	.
8d/	.
8e/J	.
8c/L	2D:dom
8c#/	.
8d/	.
8c#/J	.
=13	=13
8c/L	1G:min
8B-/	.
8Bn/	.
8B-/J}	.
2r	.
=14	=14
{4a/	1C:dom
8cc\L	.
8b-\J	.
8a/L	.
8f/	.
8d-/	.
8B/J	.
=15	=15
8c/L	1F:maj
8B-/	.
8A/	.
8c/J	.
8e/L	.
[8f/J	.
4f/]}	.
=16	=16
1r	1F:maj
=17	=17
2r	1E:min
*>solo1b	*>solo1b
{8ff\L	.
16dd\L	.
16cc\J	.
8b-\	.
8a\J	.
=18||	=18||
8g/L	1A:dom
8f#/	.
8e/	.
8A/J	.
8c#/L	.
8d/	.
8e/	.
8c#/J	.
=19	=19
4d/}	1D:dom
4r	.
8r	.
{8c#/L	.
8d/	.
8e/J	.
=20	=20
8f#/L	1D:dom
8g/	.
8a/	.
8b/J	.
8cc/L	.
8b/	.
8a/	.
8g/J	.
=21	=21
8f#/L	1G:dom
8a/	.
8cc/	.
8ee-/J	.
8cc\L	.
8dd-\	.
8ddn\	.
8cc\J	.
=22	=22
4b\}	1G:dom
4r	.
{8gg\L	.
8gg-\	.
8ff\	.
8ee\J	.
=23	=23
8dd\L	1G:min
8dd-\	.
8cc\	.
8b\J	.
8b-/L	.
8a/	.
8g/	.
8f/J	.
=24	=24
8e/L	1C:dom
8g/	.
8b-/	.
8dd/J	.
8cc/L	.
8a/J	.
12b-\L	.
12bn\	.
12cc\J	.
=25	=25
8ee\L	1F:maj
8gg\J}	.
4r	.
4r	.
*>solo1a	*>solo1a
{8gg-\L	.
8ee-\J	.
=26||	=26||
8b/L	1F:maj
8a-/	.
8f#/	.
8g/J	.
8b-\L	.
8dd\	.
8ff\	.
8dd\J	.
=27	=27
8ee-\L	1F:maj
8een\	.
8cc\	.
8cc#\J	.
8dd\L	.
8dd-\	.
8ccn\	.
8b\J	.
=28	=28
4b-\}	2A:min
4r	.
4r	2D:dom
{8a/L	.
8a-/J	.
=29	=29
4g/}	1G:min
4r	.
4r	.
{8g/L	.
8a/J	.
=30	=30
8b-\L	1C:dom
8cc\	.
8cc#\	.
8bn\J	.
4ccn\}	.
8r	.
{8c/	.
=31	=31
8c#/L	1F:maj
8b-/	.
8g/	.
8a-/J	.
4an/}	.
4r	.
=32	=32
4r	2G:min
{8g/L	.
8f/J	.
8e/L	1C:dom
8d/	.
8c#/	.
8d/J	.
=33	=33
8f/L	1F:maj
[8d/J	.
4d/]}	.
2r	.
=34||	=34||
1r	.
=35	=35
1r	.
=36	=36
1r	.
=37	=37
1r	.
=38	=38
1r	.
=39	=39
1r	.
=40	=40
1r	.
=41	=41
1r	.
=42	=42
1r	.
=43	=43
1r	.
=44	=44
1r	.
=45	=45
1r	.
=46	=46
1r	.
=47	=47
1r	.
=48	=48
1r	.
=49	=49
1r	.
=50	=50
1r	.
=51	=51
1r	.
=52	=52
1r	.
=53	=53
1r	.
=54	=54
1r	.
=55	=55
1r	.
=56	=56
1r	.
=57	=57
1r	.
=58	=58
1r	.
=59	=59
1r	.
=60	=60
1r	.
=61	=61
1r	.
=62	=62
1r	.
=63	=63
1r	.
=64	=64
1r	.
=65	=65
8r	1F:maj
{8c/L	.
8d/	.
8e/J	.
8f/L	.
8g/	.
8a/	.
8b-/J	.
=66||	=66||
8cc\	1F:maj
8r	.
8cc\L	.
8b-\J	.
8r	.
8b-\	.
4g/	.
=67	=67
4r	1F:maj
8a-/L	.
8an/J	.
8cc/L	.
8b-/	.
8a/	.
8g/J	.
=68	=68
8f/L	2A:min
8d-/	.
8c/	.
8B-/J	.
8A/L	2D:dom
8c/	.
8dn/	.
8e/J	.
=69	=69
8g/L	1G:min
8d/J}	.
4r	.
2r	.
=70	=70
1r	.
=71	=71
1r	.
=72	=72
1r	.
=73	=73
8r	1F:maj
{8f#/	.
12g\L	.
12b-\	.
12dd\J	.
8ff\L	.
8dd\	.
8ee-\	.
8een\J	.
=74||	=74||
8cc\L	1F:maj
8cc#\	.
8dd\	.
8ccn\J	.
8b-\L	.
8g\	.
8cc\	.
8b-\J	.
=75	=75
8a/L	1F:maj
8f/	.
8d-/	.
8B-/J	.
8c/L	.
8B-/	.
8A/	.
8c/J	.
=76	=76
8e/L	2A:min
8g/	.
8e/	.
8c/J	.
8f#/L	2D:dom
8e-/	.
8B/	.
8A-/J	.
=77	=77
8f/L	1G:min
8d/J}	.
4r	.
2r	.
=78	=78
1r	.
=79	=79
1r	.
=80	=80
1r	.
=81	=81
2r	1E:min
{12ff#\L	.
12gg\	.
12ff#\J	.
8ee\L	.
8dd\J	.
=82||	=82||
8dd-/L	1A:dom
8e-/	.
8en/	.
8f#/J	.
8g/L	.
8f#/	.
8e/	.
8c#/J	.
=83	=83
4d/}	1D:dom
4r	.
2r	.
=84	=84
8r	1D:dom
{8c#/L	.
8d/	.
8e/J	.
8g/L	.
8a/	.
8b/	.
8a/J	.
=85	=85
8g/L	1G:dom
8g-/	.
8e/J	.
8r	.
8r	.
8e-/	.
4r	.
=86	=86
4d/}	1G:dom
4r	.
2r	.
=87	=87
1r	.
=88	=88
1r	.
=89	=89
4r	1F:maj
{12a\L	.
12b-\	.
12bn\J	.
12cc\L	.
12dd\	.
12ee\J	.
[4ff\	.
=90||	=90||
2ff\]	1F:maj
8cc\	.
8r	.
8ee\L	.
8dd\J	.
=91	=91
8cc/L	1F:maj
8a/J	.
12b-\L	.
12cc\	.
12b-\J	.
8a/L	.
8f/	.
8d/	.
8c/J	.
=92	=92
8g/L	2A:min
8c/	.
8e/	.
8g/J	.
8g-/L	2D:dom
8e-/	.
8B/	.
8A-/J	.
=93	=93
8f/L	1G:min
8d/	.
8B-/	.
8A/J	.
4G/}	.
4r	.
=94	=94
1r	.
=95	=95
1r	.
=96	=96
2r	1C:dom
4r	.
8r	.
{[8a-/	.
=97	=97
8a-/L]	1F:maj
8f/J	.
[4g/	.
8g/]	.
4a-/	.
8f/	.
=98||	=98||
4.g/	1F:maj
[8a-/	.
8a-/L]	.
8f/J	.
[4g/	.
=99	=99
8g/]	1F:maj
4b\	.
8a-/	.
[2b-\	.
=100	=100
4b-\]	2A:min
12a\L	.
12b-\	.
12bn\J	.
8cc\L	2D:dom
8b\	.
8b-\	.
8a\J	.
=101	=101
4g/}	1G:min
4r	.
2r	.
=102	=102
1r	.
=103	=103
1r	.
=104	=104
1r	.
=105	=105
8r	1F:maj
{8e/	.
12f/L	.
12a/	.
12cc/J	.
8ee\L	.
8dd\	.
8cc#\	.
8dd\J	.
=106||	=106||
8ff\L	1F:maj
16ee\L	.
16ee-\J	.
8dd\	.
8dd-\J	.
8cc/L	.
8a/J	.
12b-\L	.
12cc\	.
12b-\J	.
=107	=107
8a/L	1F:maj
8f/	.
8d/	.
8c/J	.
8g/L	.
8c/	.
8e/	.
8g/J	.
=108	=108
4g-/	2A:min
4r	.
8f/L	1D:dom
8d/	.
8e-/	.
8en/J	.
=109	=109
8c/L	1G:min
8c#/	.
8d/	.
8cn/J	.
4B-/}	.
4r	.
=110	=110
1r	.
=111	=111
1r	.
=112	=112
1r	.
=113	=113
2r	1E:min
{24f#/LL	.
24g/	.
24f#/JJ	.
8e/	.
4d/	.
=114||	=114||
8d/L	1A:dom
8B/	.
8c#/	.
[8e/J	.
4e/]}	.
4r	.
=115	=115
8r	1D:dom
{8c#/L	.
8d/	.
8e/J	.
8g/L	.
8a-/	.
8b/	.
8an/J	.
=116	=116
8g/L	1D:dom
8f#/	.
8e/	.
8A/J	.
8c/L	.
8e-/	.
8c/	.
8c#/J	.
=117	=117
4d/}	1G:dom
4r	.
2r	.
=118	=118
1r	.
=119	=119
1r	.
=120	=120
1r	.
=121	=121
{8b\L	1F:maj
8cc\	.
8ee\	.
8gg\J	.
4ff\	.
8f#/L	.
8g/J	.
=122||	=122||
8b-\L	1F:maj
8dd\	.
8ff\	.
8dd\J	.
8ee-\L	.
8een\	.
8cc\	.
8cc#\J	.
=123	=123
8dd\L	1F:maj
8cc\	.
8b-\	.
8a\J	.
4cc\}	.
4r	.
=124	=124
1r	.
=125	=125
1r	.
=126	=126
1r	.
=127	=127
1r	.
=128	=128
1r	.
=129	=129
1r	.
=130||	=130||
1r	.
=131	=131
1r	.
=132	=132
1r	.
=133	=133
4r	1G:min
{12ee\L	.
12ff\	.
12ff#\J	.
8gg\L	.
8ff#\	.
8ffn\	.
8ee\J	.
=134	=134
8dd\L	1C:dom
8dd-\	.
8cc\	.
8a\J	.
12b-\L	.
12cc\	.
12b-\J	.
8a/L	.
8b-/J	.
=135	=135
8cc/L	1F:maj
8b-/	.
8a/	.
8g/J	.
8f#/L	.
8a/	.
8e-/	.
8c#/J	.
=136	=136
4d/	2G:min
4r	.
4r	2C:dom
[4a/	.
=137	=137
4a/]}	1F:maj
2c/	.
4r	.
=138||	=138||
1r	.
=139	=139
1r	.
=140	=140
1r	.
=141	=141
1r	.
=142	=142
1r	.
=143	=143
1r	.
=144	=144
1r	.
=145	=145
1r	.
=146||	=146||
1r	.
=147	=147
1r	.
=148	=148
1r	.
=149	=149
4r	1G:dom
{8ee\L	.
8ff\J	.
8gg\L	.
8gg-\	.
8ff\	.
8ee\J	.
=150	=150
8dd\L	1G:dom
8dd-\	.
8b\	.
8a\J	.
8g/L	.
8f/	.
8e-/	.
[8en/J	.
=151	=151
4e/]	1G:min
4r	.
8e-/L	.
8en/	.
8g/	.
8a/J	.
=152	=152
8b-\L	1C:dom
8cc\	.
8dd-\	.
8bn\J	.
8cc/L	.
8B/	.
8c/	.
8b-/J	.
=153	=153
4a/}	1F:maj
4r	.
2r	.
=154||	=154||
1r	.
=155	=155
1r	.
=156	=156
1r	.
=157	=157
1r	.
=158	=158
1r	.
=159	=159
1r	.
=160	=160
1r	.
=161	=161
1r	.
=162||	=162||
1r	.
=163	=163
1r	.
=164	=164
1r	.
=165	=165
8r	1G:min
{8f#/	.
12g\L	.
12b-\	.
12dd\J	.
8ff\L	.
8dd\	.
8ee-\	.
8een\J	.
=166	=166
8cc\L	1C:dom
8cc#\	.
8dd\	.
8ccn\J	.
8b-\L	.
8g\	.
8cc\	.
8b-\J	.
=167	=167
8a/L	2F:maj
8g/	.
8f#/	.
8A/J	.
8c/L	2D:dom
8e-/	.
8c/	.
8c#/J	.
=168	=168
8d/L	2G:min
8B-/	.
8G/	.
8F/J	.
8E/L	2C:dom
8d-/	.
8B-/	.
8Bn/J	.
=169	=169
8c/L	1F:maj
8B-/	.
8A/	.
8c/J	.
4e/}	.
4r	.
=170||	=170||
1r	.
=171	=171
1r	.
=172	=172
1r	.
=173	=173
1r	.
=174	=174
1r	.
=175	=175
1r	.
=176	=176
1r	.
=177	=177
1r	.
=178||	=178||
1r	.
=179	=179
1r	.
=180	=180
1r	.
=181	=181
4r	1G:dom
{12gg\L	.
12gg-\	.
12ff\J	.
12ee\L	.
12dd\	.
12cc\J	.
8b\	.
8r	.
=182	=182
8gg\	1G:dom
8r	.
8r	.
16dd\LL	.
16cc\JJ	.
4b\	.
4r	.
=183	=183
8r	1G:min
8gg\	.
12gg-\L	.
12ff\	.
12ee\J	.
12dd\L	.
12cc\	.
12b-\J	.
4r	.
=184	=184
8gg\L	1C:dom
8ff\J	.
12ee\L	.
12dd\	.
12cc\J	.
4b-\}	.
4r	.
=185	=185
1r	.
=186||	=186||
1r	.
=187	=187
1r	.
=188	=188
1r	.
=189	=189
1r	.
=190	=190
1r	.
=191	=191
1r	.
=192	=192
1r	.
=193	=193
1r	.
==	==
*-	*-
